overrides/.icons/spell/lv9.svg

<?xml version="1.0" encoding="UTF-8" standalone="no"?>
<svg
   viewBox="0 0 24 24"
   version="1.1"
   id="svg1"
   sodipodi:docname="level-9.svg"
   inkscape:version="1.3.2 (091e20e, 2023-11-25, custom)"
   xmlns:inkscape="http://www.inkscape.org/namespaces/inkscape"
   xmlns:sodipodi="http://sodipodi.sourceforge.net/DTD/sodipodi-0.dtd"
   xmlns="http://www.w3.org/2000/svg"
   xmlns:svg="http://www.w3.org/2000/svg">
  <defs
     id="defs1" />
  <sodipodi:namedview
     id="namedview1"
     pagecolor="#ffffff"
     bordercolor="#666666"
     borderopacity="1.0"
     inkscape:showpageshadow="2"
     inkscape:pageopacity="0.0"
     inkscape:pagecheckerboard="0"
     inkscape:deskcolor="#d1d1d1"
     inkscape:zoom="7.9107571"
     inkscape:cx="0.63205075"
     inkscape:cy="15.864474"
     inkscape:window-width="1360"
     inkscape:window-height="715"
     inkscape:window-x="-8"
     inkscape:window-y="-8"
     inkscape:window-maximized="1"
     inkscape:current-layer="svg1" />
  <path
     d="M11 7v2h-1v6h1v2H7v-2h1V9H7V7h4m1 0 2 5-2 5h2l1-2.5 1 2.5h2l-2-5 2-5h-2l-1 2.5L14 7h-2Z"
     id="path1" />
  <path
     id="rect1"
     style="fill-opacity:1;-inkscape-stroke:none;paint-order:stroke markers fill"
     d="M 4.5800781,2 C 3.1679885,2 2,3.1679879 2,4.5800781 V 5.3398438 H 4 V 4.5800781 C 4,4.2413913 4.2413915,4 4.5800781,4 H 19.419922 C 19.758609,4 20,4.2413916 20,4.5800781 v 0.7597657 h 2 V 4.5800781 C 22,3.1679876 20.832011,2 19.419922,2 Z M 2,18.660156 v 0.759766 C 2,20.832011 3.1679875,22 4.5800781,22 H 19.419922 C 20.832012,22 22,20.832012 22,19.419922 v -0.759766 h -2 v 0.759766 C 20,19.758608 19.758608,20 19.419922,20 H 4.5800781 C 4.2413915,20 4,19.758609 4,19.419922 v -0.759766 z" />
</svg>

<?xml version="1.0" encoding="UTF-8"?>
<svg id="svg1" version="1.1" viewBox="0 0 24 24" xmlns="http://www.w3.org/2000/svg">
 <path id="path1" d="M11 7v2h-1v6h1v2H7v-2h1V9H7V7h4m1 0 2 5-2 5h2l1-2.5 1 2.5h2l-2-5 2-5h-2l-1 2.5L14 7h-2Z"/>
 <path id="rect1" d="m4.5801 2c-1.4121 0-2.5801 1.168-2.5801 2.5801v0.75977h2v-0.75977c0-0.33869 0.24139-0.58008 0.58008-0.58008h14.84c0.33869 0 0.58008 0.24139 0.58008 0.58008v0.75977h2v-0.75977c0-1.4121-1.168-2.5801-2.5801-2.5801zm-2.5801 16.66v0.75977c0 1.4121 1.168 2.5801 2.5801 2.5801h14.84c1.4121 0 2.5801-1.168 2.5801-2.5801v-0.75977h-2v0.75977c0 0.33869-0.24139 0.58008-0.58008 0.58008h-14.84c-0.33869 0-0.58008-0.24139-0.58008-0.58008v-0.75977z" style="-inkscape-stroke:none;paint-order:stroke markers fill"/>
</svg>
